assets/images/inst-icon.svg

<svg width="16" height="16" viewBox="0 0 16 16" fill="none" xmlns="http://www.w3.org/2000/svg">
<path d="M3.0031 0.724902C2.49685 0.921777 2.06873 1.18428 1.6406 1.6124C1.21248 2.0374 0.949976 2.46865 0.753101 2.97178C0.562476 3.45928 0.434351 4.01865 0.396851 4.8374C0.359351 5.65615 0.349976 5.91865 0.349976 8.00615C0.349976 10.0937 0.359351 10.3562 0.396851 11.1749C0.434351 11.9937 0.565601 12.553 0.753101 13.0405C0.949976 13.5468 1.21248 13.9749 1.6406 14.403C2.06873 14.8312 2.49685 15.0937 3.0031 15.2905C3.4906 15.4812 4.04998 15.6093 4.86873 15.6468C5.68748 15.6843 5.94998 15.6937 8.03748 15.6937C10.125 15.6937 10.3875 15.6843 11.2062 15.6468C12.025 15.6093 12.5844 15.478 13.0719 15.2905C13.5781 15.0937 14.0062 14.8312 14.4344 14.403C14.8625 13.9749 15.125 13.5468 15.3219 13.0405C15.5125 12.553 15.6406 11.9937 15.6781 11.1749C15.7156 10.3562 15.725 10.0937 15.725 8.00615C15.725 5.91865 15.7156 5.65615 15.6781 4.8374C15.6406 4.01865 15.5094 3.45928 15.3219 2.97178C15.125 2.46865 14.8625 2.0374 14.4375 1.6124C14.0094 1.18428 13.5812 0.921777 13.075 0.724902C12.5875 0.534277 12.0281 0.406152 11.2094 0.368652C10.3906 0.331152 10.1281 0.321777 8.0406 0.321777C5.9531 0.321777 5.6906 0.331152 4.87185 0.368652C4.04998 0.403027 3.4906 0.534277 3.0031 0.724902ZM11.1437 1.7499C11.8937 1.78428 12.3 1.90928 12.5719 2.01553C12.9312 2.15615 13.1875 2.32178 13.4562 2.59053C13.725 2.85928 13.8906 3.11553 14.0312 3.4749C14.1375 3.74678 14.2625 4.15303 14.2969 4.90303C14.3344 5.7124 14.3406 5.95615 14.3406 8.00928C14.3406 10.0624 14.3312 10.3062 14.2969 11.1155C14.2625 11.8655 14.1375 12.2718 14.0312 12.5437C13.8906 12.903 13.725 13.1593 13.4562 13.428C13.1875 13.6968 12.9312 13.8624 12.5719 14.003C12.3 14.1093 11.8937 14.2343 11.1437 14.2687C10.3344 14.3062 10.0906 14.3124 8.03748 14.3124C5.98435 14.3124 5.7406 14.303 4.93123 14.2687C4.18123 14.2343 3.77498 14.1093 3.5031 14.003C3.14373 13.8624 2.88748 13.6968 2.61873 13.428C2.34998 13.1593 2.18435 12.903 2.04373 12.5437C1.93748 12.2718 1.81248 11.8655 1.7781 11.1155C1.7406 10.3062 1.73435 10.0624 1.73435 8.00928C1.73435 5.95615 1.74373 5.7124 1.7781 4.90303C1.81248 4.15303 1.93748 3.74678 2.04373 3.4749C2.18435 3.11553 2.34998 2.85928 2.61873 2.59053C2.88748 2.32178 3.14373 2.15615 3.5031 2.01553C3.77498 1.90928 4.18123 1.78428 4.93123 1.7499C5.7406 1.7124 5.98435 1.70615 8.03748 1.70615C10.0906 1.70615 10.3344 1.7124 11.1437 1.7499Z" fill="white"/>
<path d="M4.09058 8.00938C4.09058 10.1906 5.85933 11.9563 8.03745 11.9563C10.2156 11.9563 11.9843 10.1875 11.9843 8.00938C11.9843 5.83125 10.2187 4.0625 8.03745 4.0625C5.8562 4.0625 4.09058 5.82812 4.09058 8.00938ZM10.6 8.00938C10.6 9.425 9.45308 10.5719 8.03745 10.5719C6.62183 10.5719 5.47495 9.425 5.47495 8.00938C5.47495 6.59375 6.62183 5.44688 8.03745 5.44688C9.45308 5.44688 10.6 6.59375 10.6 8.00938Z" fill="white"/>
<path d="M12.1437 4.82812C12.6528 4.82812 13.0656 4.41539 13.0656 3.90625C13.0656 3.39711 12.6528 2.98438 12.1437 2.98438C11.6345 2.98438 11.2218 3.39711 11.2218 3.90625C11.2218 4.41539 11.6345 4.82812 12.1437 4.82812Z" fill="white"/>
</svg>

<svg width="16" height="16" fill="none" xmlns="http://www.w3.org/2000/svg"><path d="M3.003.725a3.77 3.77 0 00-1.362.887 3.754 3.754 0 00-.888 1.36c-.19.487-.319 1.047-.356 1.865C.359 5.657.35 5.92.35 8.007c0 2.087.01 2.35.047 3.168.037.819.169 1.378.356 1.865.197.507.46.935.888 1.363.428.428.856.69 1.362.887.488.191 1.047.32 1.866.357.818.037 1.081.047 3.168.047 2.088 0 2.35-.01 3.17-.047.818-.038 1.377-.169 1.865-.357a3.758 3.758 0 001.362-.887 3.77 3.77 0 00.888-1.363c.19-.487.319-1.046.356-1.865.038-.819.047-1.081.047-3.169 0-2.087-.01-2.35-.047-3.169-.037-.818-.169-1.378-.356-1.865a3.79 3.79 0 00-.884-1.36 3.77 3.77 0 00-1.363-.887c-.487-.19-1.047-.319-1.866-.356C10.391.33 10.13.322 8.041.322s-2.35.01-3.17.047c-.821.034-1.38.165-1.868.356zm8.14 1.025c.75.034 1.157.16 1.429.266.36.14.616.306.884.575.269.268.435.525.575.884.106.272.231.678.266 1.428.037.81.044 1.053.044 3.106s-.01 2.297-.044 3.107c-.035.75-.16 1.156-.266 1.428-.14.359-.306.615-.575.884a2.394 2.394 0 01-.884.575c-.272.106-.678.231-1.428.266-.81.037-1.053.043-3.107.043-2.053 0-2.296-.009-3.106-.043-.75-.035-1.156-.16-1.428-.266a2.394 2.394 0 01-.884-.575 2.395 2.395 0 01-.575-.884c-.107-.272-.232-.678-.266-1.428-.037-.81-.044-1.054-.044-3.107s.01-2.297.044-3.106c.034-.75.16-1.156.266-1.428.14-.36.306-.616.575-.884.268-.27.525-.435.884-.575.272-.107.678-.232 1.428-.266.81-.038 1.053-.044 3.106-.044 2.054 0 2.297.006 3.107.044z" fill="#fff"/><path d="M4.09 8.01a3.947 3.947 0 107.895 0 3.947 3.947 0 00-7.894 0zm6.51 0a2.562 2.562 0 11-5.124 0 2.562 2.562 0 015.124 0zm1.544-3.182a.922.922 0 100-1.844.922.922 0 000 1.844z" fill="#fff"/></svg>
